X:1
T: John Laurie
C:
R:Reel
Q: 232
K:D
M:4/4
L:1/8
|:A3A A2 d2|f2 d2 b2 a2|A3A A2 d2|a^g =gf e4|A3A A2 c2|
e2 c2 a2 g2|1c3c c2 B2|BA GA F4:|2cB AG F2 E2|D4 D4|
f3f f2 d2|A2 df b2 a2|f3f f2 b2|ba gf e4|c3c c2 B2|
A2 eg a2 g2|1c'3c' c'2 b2|ba ^ga f4:|2c'b ag f2 e2|d4 d4||
